X:1
T:Honeysuckle Rose
C:Fats Waller
M:4/4
L:1/8
Q:1/4=120
K:F
A2 A2 AA c2 | A6 G2 | A2 A2 AA c2 | F8 |
c2 c2 cc dc | c6 B2 | A2 cA F2 D2 | F8 |]
